X: 783
T: Peacock Rag
C:Arthur Smith
B: jims roots
M:4/4
L:1/8
Q: 1/4=100
K:D
V:1 
|:x [A2F2][A2G2][A2^G2] | "D"A2 (f2 f)afd | A2 [d2F2] [c2=F2] [=c2E2] | "G"[B2D2] (g2 g)bge |
|:x f2 g2 a2 | "B7"[b^d][^a=d] ([b2^d2] [b4d4]) | [f6A6] e2 | "E7"([^g4B4] [gB])bgf |
e4 [e3d3] A | "A7"c2 ([a2c2] [ac])[bc] [a2c2] | f3a fdec | "D"d8- | d2 :|
V:e6B6 
V:[e2A2 
 | "A"!slide![e2c2] !slide!([e2c2] [ec])[e^B] [e2c2] | "D"f3a fdec | d3B AGFE | D2:|
% abcbook-tune_id 6298c2791b74cd410eea88b3


% abcbook-boost 0
% abcbook-tablature 
% abcbook-transpose 
% abcbook-lastupdated 1654178426426
% abcbook-soundfonts 
% abcbook-repeats 1


